Hatter-kde-dark/actions/24/restoration.svg

<?xml version="1.0" encoding="UTF-8"?>
<!DOCTYPE svg>
<svg version="1.1" viewBox="0 0 24 24" xmlns="http://www.w3.org/2000/svg">
 <defs>
  <style id="current-color-scheme" type="text/css">.ColorScheme-Text {
                color:#dedede;
            }</style>
 </defs>
 <g transform="translate(1,1)">
  <path class="ColorScheme-Text" d="m4 19v-7h1 12 1v7h-1-12-1zm1-1h12v-5h-12v5zm-1-7v-8h1 8 1v0.0098l8e-3 -0.0098 3.9922 3.9922v0.0078 1.4062 2.5938h-1-12-1.0002zm1-1h12v-2h-4v-1-3h-8v6z" fill="currentColor"/>
 </g>
</svg>

<!DOCTYPE svg>
<svg viewBox="0 0 24 24" version="1.1" xmlns="http://www.w3.org/2000/svg">
    <defs>
        <style type="text/css" id="current-color-scheme">
            .ColorScheme-Text {
                color:#dedede;
            }
        </style>
    </defs><g transform="translate(1,1)">
    <path class="ColorScheme-Text" style="fill:currentColor; fill-opacity:1; stroke:none" d="M 4 19 L 4 12 L 5 12 L 17 12 L 18 12 L 18 19 L 17 19 L 5 19 L 4 19 Z M 5 18 L 17 18 L 17 13 L 5 13 L 5 18 Z M 4 11 L 4 3 L 5 3 L 13 3 L 14 3 L 14 3.0098 L 14.008 3 L 18.0002 6.99219 L 18.0002 6.99999 L 18.0002 8.40624 L 18.0002 11 L 17.0002 11 L 5.00019 11 L 4 11 Z M 5 10 L 17 10 L 17 8 L 13 8 L 13 7 L 13 4 L 5 4 L 5 10 Z"/>
</g></svg>
